img/svg/tab-icons/salary-ico.svg

<svg width="24" height="24" viewBox="0 0 24 24" fill="#E0E0E0" xmlns="http://www.w3.org/2000/svg">
<path d="M16.5697 11.7528C16.3214 11.6523 16.0702 11.5609 15.8171 11.4774C17.3687 10.3136 18.3745 8.45947 18.3745 6.375C18.3745 2.85974 15.5146 0 11.9995 0C8.48428 0 5.62453 2.85974 5.62453 6.375C5.62453 8.4613 6.63198 10.3169 8.186 11.4805C6.76235 11.9491 5.42623 12.678 4.2571 13.6397C2.11349 15.403 0.623009 17.8625 0.0603255 20.5651C-0.116005 21.412 0.0952987 22.2817 0.639854 22.9515C1.18185 23.6179 1.98531 24 2.84444 24H15.937C16.4547 24 16.8745 23.5803 16.8745 23.0625C16.8745 22.5447 16.4547 22.125 15.937 22.125H2.84444C2.44418 22.125 2.20284 21.9016 2.09444 21.7685C1.90749 21.5385 1.83517 21.2393 1.89596 20.9473C2.86953 16.2708 6.99654 12.8558 11.7609 12.7451C11.84 12.748 11.9195 12.75 11.9995 12.75C12.0799 12.75 12.1598 12.748 12.2396 12.7451C13.4929 12.7734 14.7119 13.0239 15.8667 13.491C16.3468 13.6849 16.8932 13.4533 17.0873 12.9734C17.2814 12.4933 17.0498 11.9469 16.5697 11.7528V11.7528ZM7.49953 6.375C7.49953 3.89374 9.51809 1.875 11.9995 1.875C14.4808 1.875 16.4995 3.89374 16.4995 6.375C16.4995 8.78412 14.5965 10.7569 12.2149 10.8697C12.1431 10.8686 12.0713 10.8673 11.9995 10.8673C11.9263 10.8673 11.8532 10.8682 11.7802 10.8697C9.40035 10.7549 7.49953 8.78284 7.49953 6.375V6.375ZM23.9995 19.7269V19.957C23.9995 21.2787 23.0382 22.3394 21.7486 22.5196V23.0625C21.7486 23.5803 21.3288 24 20.8111 24C20.2933 24 19.8736 23.5803 19.8736 23.0625V22.5447C18.6045 22.5009 17.6225 21.509 17.6225 20.25C17.6225 19.7322 18.0424 19.3125 18.56 19.3125C19.0778 19.3125 19.4975 19.7322 19.4975 20.25C19.4975 20.527 19.7308 20.6719 19.9611 20.6719H21.3573C21.7948 20.6719 22.1245 20.3644 22.1245 19.957V19.7269C22.1245 19.3105 21.7876 18.9844 21.3573 18.9844H20.4984C19.0442 18.9844 17.8613 17.7858 17.8613 16.3125V15.9706C17.8613 15.262 18.1378 14.6014 18.6399 14.1101C18.9846 13.7728 19.4096 13.5416 19.8736 13.4319V12.7969C19.8736 12.2791 20.2933 11.8594 20.8111 11.8594C21.3288 11.8594 21.7486 12.2791 21.7486 12.7969V13.3997C22.8416 13.6007 23.6714 14.5382 23.6714 15.6617C23.6714 16.1794 23.2515 16.5992 22.7339 16.5992C22.2161 16.5992 21.7964 16.1794 21.7964 15.6617C21.7964 15.3942 21.5494 15.2344 21.3106 15.2344H20.4984C20.0639 15.2344 19.7363 15.551 19.7363 15.9706V16.3125C19.7363 16.7444 20.0853 17.1094 20.4984 17.1094H21.3573C22.0612 17.1094 22.7222 17.3773 23.2188 17.8636C23.7221 18.3567 23.9995 19.0184 23.9995 19.7269V19.7269Z"/>
</svg>

<svg width="24" height="24" fill="#E0E0E0" xmlns="http://www.w3.org/2000/svg"><path d="M16.57 11.753c-.249-.1-.5-.192-.753-.276a6.37 6.37 0 002.558-5.102A6.382 6.382 0 0011.998 0a6.382 6.382 0 00-6.374 6.375 6.37 6.37 0 002.561 5.105 12.181 12.181 0 00-3.929 2.16A12.232 12.232 0 00.06 20.565 2.847 2.847 0 002.844 24h13.093a.938.938 0 000-1.875H2.844a.953.953 0 01-.75-.357.98.98 0 01-.198-.82c.974-4.677 5.1-8.092 9.865-8.203a6.507 6.507 0 00.479 0 10.25 10.25 0 013.627.746.938.938 0 00.703-1.738zM7.5 6.375c0-2.481 2.018-4.5 4.5-4.5 2.48 0 4.5 2.019 4.5 4.5a4.505 4.505 0 01-4.285 4.495l-.216-.003-.219.003A4.506 4.506 0 017.5 6.375zM24 19.727v.23c0 1.322-.962 2.382-2.251 2.563v.543a.938.938 0 01-1.875 0v-.518c-1.27-.044-2.252-1.036-2.252-2.295a.938.938 0 011.875 0c0 .277.234.422.464.422h1.396c.438 0 .768-.308.768-.715v-.23c0-.416-.337-.743-.768-.743h-.859c-1.454 0-2.637-1.198-2.637-2.672v-.341c0-.709.277-1.37.779-1.86a2.62 2.62 0 011.234-.68v-.634a.937.937 0 111.875 0v.603c1.093.2 1.922 1.138 1.922 2.262a.938.938 0 01-1.875 0c0-.268-.247-.428-.485-.428h-.813c-.434 0-.762.317-.762.737v.341c0 .432.35.797.762.797h.86c.703 0 1.364.268 1.86.755.504.493.782 1.154.782 1.863z"/></svg>
